X: 4
T: The Battering Ram
R: jig
M: 6/8
L: 1/8
K: Gmaj
B|dBA BdA|~G3 G2B|dBA BdA|~G3 efg|dBA ABA|GED ~G3|AGE A2B|GED D2B|dBA BdA|~G3 G2B|dBA BdA|GB/2c/2d efg|dBA ABA|GED ~G3|AGE A2B|GED D3|deg a2b|ged edB|deg a2b|gag g2e|deg a2b|ged edB|dBG A2B|GED D3|deg a2b|ged edB|deg a2b|gag g2e|deg a2b|ged edB|dBG A2B|GED D2|


Tune 382	Setting 13206

